images/decore_selling.svg

<svg width="98" height="254" viewBox="0 0 98 254" fill="none" xmlns="http://www.w3.org/2000/svg">
<path d="M8.95816 14.2344C15.985 5.71795 33.7527 -7.37604 48.6094 8.37933C63.4661 24.1347 43.423 53.6228 31.5443 66.3974C25.6886 69.9459 13.4754 75.9784 11.4677 71.7202C8.95816 66.3974 7.45241 55.2196 28.0309 45.6387C41.248 39.961 69.7902 33.9286 78.2224 55.2196C82.0704 64.4457 82.7396 85.8787 54.6324 97.8017L19.4984 113.238M19.4984 113.238C6.11398 113.774 -13.1261 107.392 16.9888 77.5752C26.5252 72.9621 49.6133 63.6296 65.6746 63.2038C74.8763 65.1554 92.5772 74.8074 89.7665 97.8017C90.1011 102.415 83.8439 113.876 56.1382 122.819C49.7806 124.238 35.5597 127.183 29.5367 127.609L7.95439 130.803L19.4984 113.238ZM19.4984 113.238C28.2808 110.754 49.0085 106.531 61.6592 109.512C77.4727 113.238 83.7435 110.044 96.2913 130.803C98.4663 141.448 96.8936 163.272 73.2033 165.401C49.5129 167.53 34.2212 163.449 29.5367 161.143V141.448M29.5367 141.448C46.7691 143.045 83.7435 141.874 93.7818 124.415C98.6336 111.996 99.0017 86.6239 61.6592 84.4948C52.6248 84.8496 33.3513 85.9852 28.5329 87.6884L29.5367 125.48C47.1037 127.077 84.0446 134.635 91.2722 152.094C95.1202 162.207 96.3917 183.498 70.6937 187.756C61.1573 188.111 39.575 186.798 29.5367 178.708M29.5367 141.448V178.708M29.5367 141.448C40.4115 144.11 64.3696 151.455 73.2033 159.546C83.9108 168.417 99.604 190.418 76.7167 207.45C69.5225 210.112 50.4163 212.241 31.5443 199.466M29.5367 178.708L31.5443 199.466M29.5367 178.708C41.5827 187.224 66.1765 207.876 68.1841 222.354C69.0207 231.225 66.7788 249.713 51.119 252.694C47.1037 253.404 37.1658 253.333 29.5367 247.371L31.5443 199.466" stroke="#84829A"/>
</svg>

<svg width="98" height="254" fill="none" xmlns="http://www.w3.org/2000/svg"><path d="M8.958 14.234C15.985 5.718 33.753-7.376 48.61 8.38s-5.186 45.244-17.065 58.018c-5.855 3.549-18.069 9.581-20.076 5.323-2.51-5.323-4.016-16.5 16.563-26.081 13.217-5.678 41.76-11.71 50.191 9.58 3.848 9.227 4.518 30.66-23.59 42.583l-35.134 15.436m0 0c-13.384.536-32.624-5.846-2.51-35.663 9.537-4.613 32.625-13.945 48.687-14.371 9.201 1.951 26.902 11.603 24.091 34.598.335 4.613-5.922 16.074-33.628 25.017-6.357 1.419-20.578 4.364-26.601 4.79l-21.583 3.194 11.544-17.565zm0 0c8.783-2.484 29.51-6.707 42.161-3.726 15.814 3.726 22.084.532 34.632 21.291 2.175 10.645.603 32.469-23.088 34.598-23.69 2.129-38.982-1.952-43.666-4.258v-19.695m0 0c17.232 1.597 54.207.426 64.245-17.033 4.852-12.419 5.22-37.791-32.123-39.92-9.034.355-28.308 1.49-33.126 3.193l1.004 37.792c17.567 1.597 54.508 9.155 61.735 26.614 3.848 10.113 5.12 31.404-20.578 35.662-9.537.355-31.119-.958-41.157-9.048m0-37.26v37.26m0-37.26c10.874 2.662 34.833 10.007 43.666 18.098 10.708 8.871 26.401 30.872 3.514 47.904-7.195 2.662-26.3 4.791-45.173-7.984m-2.007-20.758l2.007 20.758m-2.007-20.758c12.046 8.516 36.64 29.168 38.647 43.646.837 8.871-1.405 27.359-17.065 30.34-4.015.71-13.953.639-21.582-5.323l2.007-47.905" stroke="#84829A"/></svg>
